X:1
T:Title
%%score { ( 1 3 ) | ( 2 4 ) }
L:1/8
Q:1/4=92
M:4/4
K:G
V:1 treble nm="Grand Piano"
V:3 treble 
V:2 bass 
V:4 bass 
V:1
 G2 FG B2 A2 | A>A ^GA c2 BB | z4 B4 | z4[K:bass] E2 z2 | [G,B,G]2 FG B2 A2 | A>A ^GA c2 BB | %6
w: Caryl~Florio * * * *||||||
 A2 B2 ^cdAF | [^CF]2 [CE]2 D2 z D | [Fc]2 [GB]2 [DA]2 [DG]2 | [EG][EF][EG][EA] [^DB]3 [DB] | %10
w: ||||
 [Ee]2 [Ed]2 [Ec][CE][CEF][CEG] | [CFA]2 [CFB]2 [B,G]4 |] %12
w: ||
V:2
 [G,B,D]2 [G,B,D][G,B,D] [G,CD]2 [F,CD]2 | %1
 [F,CD]>[F,CD] [=F,CD][^F,CD][K:treble] [A,DF]2 [G,DG][G,DG] | B,,2 C,2 z2 D[A,,F,] | z4 D,4 | %4
 G,,2 [G,B,D][G,B,D] [G,CD]2 [F,CD]2 | %5
 [F,CD]>[F,CD] [=F,CD][^F,CD][K:treble] [A,DF]2 [G,DG][G,DG] | %6
 [A,DF]2 [A,DF]2 [A,DF][A,DF][A,DF][K:bass][A,D] | [A,,A,]2 [A,,G,]2 [D,F,]2 z [D,F,] | %8
 [D,A,]2 [D,G,]2 [C,F,]2 [B,,G,]2 | [C,G,][C,G,][C,G,][C,E,] [B,,F,]3 [B,,B,] | %10
 [^G,,B,]2 [G,,B,]2 [A,,A,]A,,A,,A,, | D,2 D,2 G,4 |] %12
V:3
 x8 | x8 | [=FGd]2 [EGc]2 [DG]2 z [DA] | [G,DG][G,DG][A,^CF][K:bass][G,CE] [F,=C]4 | x8 | x8 | x8 | %7
 x8 | x8 | x8 | x8 | x8 |] %12
V:4
 x8 | x4[K:treble] x4 | z4 G,,4 | B,,B,,A,,A,, z2 D2 | x8 | x4[K:treble] x4 | x7[K:bass] x | x8 | %8
 x8 | x8 | x8 | x8 |] %12

